X:1
T:Sunne, 11.8.11.8
T:Sunne, 11.8.11.8
T:Anonymous
T:Public Domain Courtesy of the Cyber Hymnal™
C:Anonymous
Z:Public Domain
Z:Courtesy of the Cyber Hymnal™
%%score ( 1 2 ) ( 3 4 )
L:1/8
Q:1/4=87
M:6/8
K:F
V:1 treble 
V:2 treble 
V:3 bass 
V:4 bass 
V:1
 [CF] | [CA][CF]>[CF] [CF][CE][CF] | [EG][EG]>[FA] [EG]2 [EG] | [EB][EG]>[EG] [EG]F[EG] | %4
 [FA]3- [FA]2 [FA] | [Fc][Fc]>[Fd] x3 | [Fc][CA][CF] x3 | [B,D][DB]>[DB] [DB]2 [Ec] | %8
 [FA][FA]>[FA] [EB][EG][CE] | [CF]3- [CF]2 |] %10
V:2
 x | x6 | x6 | x4 F x | x6 | x6 | x6 | x6 | x6 | x5 |] %10
V:3
 [F,A,] | [F,C][F,A,]>[F,A,] [A,C][G,B,][F,A,] | [C,C][C,C]>[C,C] [C,C]2 [C,C] | %3
 [C,G,][C,C]>C [B,C][A,C][G,C] | [F,C]3- [F,C]2 [F,C] | [F,A,][F,A,]>[F,B,] [F,A,]F,[A,,F,] | %6
 [B,,F,][B,,F,]>[B,,F,] [G,,G,]2 [C,G,] | [C,F,][C,F,]>[C,A,] [C,C][C,B,][C,B,] | %8
 [F,A,]3- [F,A,]2 x | x5 |] %10
V:4
 x | x6 | x6 | x5/2 C/ x3 | x6 | x4 F, x | x6 | x6 | x6 | x5 |] %10

